dist/svgs/carbon-icons/svg/notification-off.svg

<?xml version="1.0" encoding="UTF-8"?>
<svg width="14px" height="16px" viewBox="0 0 14 16" version="1.1" xmlns="http://www.w3.org/2000/svg" xmlns:xlink="http://www.w3.org/1999/xlink">
    <!-- Generator: Sketch 50.2 (55047) - http://www.bohemiancoding.com/sketch -->
    <title>notification-off</title>
    <desc>Created with Sketch.</desc>
    <defs></defs>
    <g id="notification-off" stroke="none" stroke-width="1" fill="none" fill-rule="evenodd">
        <path d="M1.50123859,13.9872317 L0.624833129,14.6886103 L0,13.907852 L13.3302115,3.23981622 L13.9550446,4.02057454 L11.9919452,5.59162351 L11.9919452,9.23422813 L13.7934261,10.5842331 C13.8596015,10.6338241 13.9114847,10.6982706 13.9458305,10.771108 C13.9766748,10.8365199 13.9933752,10.908699 13.9935813,10.9829633 L14.0012367,13.4986123 C14.0020046,13.7752957 13.777923,14 13.5012386,14 L9.45122953,14 C9.21959436,15.1411202 8.21071754,16 7.00123859,16 C5.79175963,16 4.78288281,15.1411202 4.55124765,14 L1.50123859,14 L1.50123859,13.9872317 Z M2.73483098,13 L12.999849,13 L12.9942769,11.2349936 L11.1921024,9.88446879 C11.066107,9.79004962 10.9919452,9.64179873 10.9919452,9.48435094 L10.9919452,6.39191357 L2.73483098,13 Z M5.58659144,14 C5.79250965,14.5825962 6.34812918,15 7.00123859,15 C7.654348,15 8.20996753,14.5825962 8.41588573,14 L5.58659144,14 Z" id="bell-bottom" fill="#000000" fill-rule="nonzero"></path>
        <path d="M7.50123859,1.24828652 C8.12986297,1.2976458 8.62886805,1.44873715 9.1964559,1.72906413 C10.1291942,2.18973594 10.8119199,2.84321111 11.2715678,3.62894471 L10.4084126,4.13388354 C10.0577257,3.57149759 9.49780108,3.00262131 8.72843049,2.62199509 C8.22212532,2.37151369 7.5801184,2.24609848 6.83680983,2.24609848 C6.34283665,2.24609848 5.96241862,2.2960531 5.47133224,2.53915692 C4.04213924,3.2466542 3.14698814,4.35306653 2.99713947,6.01444068 L2.94072489,9.7391351 L0.797376585,11.4342762 L0.177050814,10.6499319 L1.94809086,9.24924368 L1.99860761,5.96933446 C2.1037986,4.00213576 3.40830188,2.24609848 5.06908092,1.62334103 C5.54603736,1.4278403 6.02568682,1.30618812 6.5012386,1.25618233 L6.50123859,0 L7.50123859,0 L7.50123859,1.24828652 Z" id="bell---top" fill="#000000"></path>
    </g>
</svg>

<svg xmlns="http://www.w3.org/2000/svg" viewBox="0 0 14 16"><g fill-rule="evenodd"><path fill-rule="nonzero" d="M1.501 13.987l-.876.702L0 13.908 13.33 3.24l.625.78-1.963 1.572v3.642l1.801 1.35a.5.5 0 01.2.399l.008 2.516a.5.5 0 01-.5.501h-4.05a2.5 2.5 0 01-4.9 0h-3.05v-.013zM2.735 13H13l-.006-1.765-1.802-1.35a.5.5 0 01-.2-.4V6.391L2.735 13zm2.852 1a1.5 1.5 0 002.829 0h-2.83z"/><path d="M7.501 1.248c.629.05 1.128.2 1.695.481.933.46 1.616 1.114 2.076 1.9l-.864.505a4.163 4.163 0 00-1.68-1.512c-.506-.25-1.148-.376-1.891-.376-.494 0-.875.05-1.366.293-1.429.708-2.324 1.814-2.474 3.475L2.941 9.74.797 11.434l-.62-.784 1.771-1.4.05-3.28c.106-1.968 1.41-3.724 3.071-4.347a5.207 5.207 0 011.432-.367V0h1v1.248z"/></g></svg>
